resources/svg/oil-line.svg

<svg fill="currentColor" viewBox="0 0 24 24" xmlns="http://www.w3.org/2000/svg"><path d="M9.07037 7L6 11.6056V20H18V7H9.07037ZM8 5H19C19.5523 5 20 5.44772 20 6V21C20 21.5523 19.5523 22 19 22H5C4.44772 22 4 21.5523 4 21V11L8 5ZM13 1H18C18.5523 1 19 1.44772 19 2V4H12V2C12 1.44772 12.4477 1 13 1ZM8 12H10V18H8V12Z"/></svg>

<svg xmlns="http://www.w3.org/2000/svg" viewBox="0 0 24 24" fill="currentColor">
    <g>
        <path fill="none" d="M0 0h24v24H0z"/>
        <path d="M9.07 7L6 11.606V20h12V7H9.07zM8 5h11a1 1 0 0 1 1 1v15a1 1 0 0 1-1 1H5a1 1 0 0 1-1-1V11l4-6zm5-4h5a1 1 0 0 1 1 1v2h-7V2a1 1 0 0 1 1-1zM8 12h2v6H8v-6z"/>
    </g>
</svg>
